src/assets/svgs/contactSvg.svg

<svg  viewBox="0 0 375 826" fill="none" xmlns="http://www.w3.org/2000/svg">
<g filter="url(#filter0_dddd)">
<path d="M-147.963 231.543C-153.07 160.889 -126.972 73.5536 -59.9387 46.8294C7.0958 20.2759 88.0436 0.455731 197.773 14.0215C307.732 27.4156 419.449 20.4882 441.935 66.8326C464.42 113.006 397.904 212.622 399.105 283.974C400.536 355.495 469.685 398.754 509.735 467.904C549.786 537.054 560.736 631.926 507.386 688.47C454.035 745.015 336.613 763.061 223.276 767.605C110.169 772.147 1.14788 763.188 -41.385 705.827C-83.6874 648.635 -59.2713 543.04 -57.463 476.797C-55.6548 410.555 -76.4543 383.665 -104.895 343.148C-133.566 302.632 -160.206 295.388 -147.963 231.543Z" fill="#DFF2FA" fill-opacity="0.89"/>
</g>
<defs>
<filter id="filter0_dddd" x="-184" y="-0.000244141" width="760.366" height="825.91" filterUnits="userSpaceOnUse" color-interpolation-filters="sRGB">
<feFlood flood-opacity="0" result="BackgroundImageFix"/>
<feColorMatrix in="SourceAlpha" type="matrix" values="0 0 0 0 0 0 0 0 0 0 0 0 0 0 0 0 0 0 127 0"/>
<feOffset/>
<feGaussianBlur stdDeviation="0.5"/>
<feColorMatrix type="matrix" values="0 0 0 0 0 0 0 0 0 0 0 0 0 0 0 0 0 0 0.04 0"/>
<feBlend mode="normal" in2="BackgroundImageFix" result="effect1_dropShadow"/>
<feColorMatrix in="SourceAlpha" type="matrix" values="0 0 0 0 0 0 0 0 0 0 0 0 0 0 0 0 0 0 127 0"/>
<feOffset dy="4"/>
<feGaussianBlur stdDeviation="4"/>
<feColorMatrix type="matrix" values="0 0 0 0 0 0 0 0 0 0 0 0 0 0 0 0 0 0 0.04 0"/>
<feBlend mode="normal" in2="effect1_dropShadow" result="effect2_dropShadow"/>
<feColorMatrix in="SourceAlpha" type="matrix" values="0 0 0 0 0 0 0 0 0 0 0 0 0 0 0 0 0 0 127 0"/>
<feOffset dy="16"/>
<feGaussianBlur stdDeviation="12"/>
<feColorMatrix type="matrix" values="0 0 0 0 0 0 0 0 0 0 0 0 0 0 0 0 0 0 0.04 0"/>
<feBlend mode="normal" in2="effect2_dropShadow" result="effect3_dropShadow"/>
<feColorMatrix in="SourceAlpha" type="matrix" values="0 0 0 0 0 0 0 0 0 0 0 0 0 0 0 0 0 0 127 0"/>
<feOffset dy="24"/>
<feGaussianBlur stdDeviation="16"/>
<feColorMatrix type="matrix" values="0 0 0 0 0 0 0 0 0 0 0 0 0 0 0 0 0 0 0.04 0"/>
<feBlend mode="normal" in2="effect3_dropShadow" result="effect4_dropShadow"/>
<feBlend mode="normal" in="SourceGraphic" in2="effect4_dropShadow" result="shape"/>
</filter>
</defs>
</svg>

<svg viewBox="0 0 375 826" fill="none" xmlns="http://www.w3.org/2000/svg" preserveAspectRatio="xMinYMin meet"><g filter="url(#filter0_dddd)"><path d="M-147.963 231.543c-5.107-70.654 20.991-157.99 88.024-184.714C7.096 20.276 88.044.456 197.773 14.022c109.959 13.394 221.676 6.466 244.162 52.81 22.485 46.174-44.031 145.79-42.83 217.142 1.431 71.521 70.58 114.78 110.63 183.93 40.051 69.15 51.001 164.022-2.349 220.566-53.351 56.545-170.773 74.591-284.11 79.135-113.107 4.542-222.128-4.417-264.661-61.778-42.302-57.192-17.886-162.787-16.078-229.03 1.808-66.242-18.991-93.132-47.432-133.649-28.671-40.516-55.311-47.76-43.068-111.605z" fill="#DFF2FA" fill-opacity=".89"/></g><defs><filter id="filter0_dddd" x="-184" y="0" width="760.366" height="825.91" filterUnits="userSpaceOnUse" color-interpolation-filters="sRGB"><feFlood flood-opacity="0" result="BackgroundImageFix"/><feColorMatrix in="SourceAlpha" values="0 0 0 0 0 0 0 0 0 0 0 0 0 0 0 0 0 0 127 0"/><feOffset/><feGaussianBlur stdDeviation=".5"/><feColorMatrix values="0 0 0 0 0 0 0 0 0 0 0 0 0 0 0 0 0 0 0.04 0"/><feBlend in2="BackgroundImageFix" result="effect1_dropShadow"/><feColorMatrix in="SourceAlpha" values="0 0 0 0 0 0 0 0 0 0 0 0 0 0 0 0 0 0 127 0"/><feOffset dy="4"/><feGaussianBlur stdDeviation="4"/><feColorMatrix values="0 0 0 0 0 0 0 0 0 0 0 0 0 0 0 0 0 0 0.04 0"/><feBlend in2="effect1_dropShadow" result="effect2_dropShadow"/><feColorMatrix in="SourceAlpha" values="0 0 0 0 0 0 0 0 0 0 0 0 0 0 0 0 0 0 127 0"/><feOffset dy="16"/><feGaussianBlur stdDeviation="12"/><feColorMatrix values="0 0 0 0 0 0 0 0 0 0 0 0 0 0 0 0 0 0 0.04 0"/><feBlend in2="effect2_dropShadow" result="effect3_dropShadow"/><feColorMatrix in="SourceAlpha" values="0 0 0 0 0 0 0 0 0 0 0 0 0 0 0 0 0 0 127 0"/><feOffset dy="24"/><feGaussianBlur stdDeviation="16"/><feColorMatrix values="0 0 0 0 0 0 0 0 0 0 0 0 0 0 0 0 0 0 0.04 0"/><feBlend in2="effect3_dropShadow" result="effect4_dropShadow"/><feBlend in="SourceGraphic" in2="effect4_dropShadow" result="shape"/></filter></defs></svg>
